!!!SOCIAL_FUNCTION:	songs of the sun dance
!!!PDT:	1918

Specific Region: Dakotas, Minnesota, Montana, Nebraska
!!!REG: Dakotas and Montana
!!!LING_GROUP: Siouan
!!!LANG: Tone
!!!OTL@ENG: Song Sung after Raising the Sacred Pole (b)
!!!ONM: No. 15
**kern
*Imale
*clefG2
*k[b-e-a-d-g-]
*M3/4
*MM66
8a-
8a-
8a-
8a-
4a-
=1||
*M2/4
4a-
16a-
8.e-
=2
4e-
16e-
8.e-
=3||
*M3/4
8f
8f
8f
8e-
4e-
=4||
*M2/4
4e-
16e-
8.d-
=5
8.d-
16d-
16d-
16B-
8B-
=6
4d-
16B-
8.B-
=7
4B-
8B-
8B-
=8
8d-
8d-
8.d-
16e-
=9
8.d-
16d-
16d-
16B-
8B-
=10
4d-
16B-
8.B-
=11
4B-
16B-
8.B-
=12||
*M3/4
2.B-
=13
8e-
8e-
8e-
8e-
4e-
=14||
*M2/4
4e-
16e-
8.d-
=15
8.d-
16d-
16d-
16B-
8B-
=16
4d-
16B-
8.B-
=
8B-
8B-
8B-
[8B-
4B-]
=17
8d-
8d-
8.d-
16e-
=18
8.d-
16d-
16d-
16B-
8B-
=19
4d-
16B-
8.B-
=20
4B-
16B-
8.B-
=21
[2B-
=22
2B-]
=23
4B-
4r
==
*-
!!!CNT: Native American -- Sioux
!!!MRD: 1911/07//-1914///
!!!OCL: Frances Densmore
!!!YOR1: Teton Sioux Music, Bulletin 61,
!!!YOR2: Bureau of American Ethnology, Smithsonian Institution
!!!PPR: Government Printing Office
!!!PPP: Washington, D.C.
!!!PDT: 1918///
!!!ENC: Craig Stuart Sapp
!!!END: 2002/03/25/
!!!EEV: 2002/03/31/
!!!AGN: Ceremonial Song/Song of the Sun Dance
!!!MPN@@SIO: Itung'kasang-lu'ta
!!!MPN@ENG: Red Weasel
!!!TXO: Teton Sioux
!!!MLC: Standing Rock Reservation, South Dakota, United States of America
!!!ARL: 45.9/-100.7#
!!!catalog: Catalogue No. 629
!!!PPG: 120
!!!EFL: 15/245
!!!VTS: 3589814739
